X: 233
M: C|
L: 1/8
K: Bb
V: 1
(d/e/) | f>deg f<d~B2 | G<cAG F2~Fd/e/ | f>deg f<dTB2 | A<ce>A ~B2Bd/e/ |
         f>deg f<bd>f | B>d (c/B/A/G/) {G}F2~FG/A/ | B<dcA B>FG>E | D>B (e/c/)B/A/ B2B |]
V: 2 clef=bass middle=d
z | B2B2 f2f2 | e2=e2 f2F2 | e2e2 B2B2 | e2f2 B2B :|
z | b2e2 f2b2 | e2=e2 f2F2 | d2e2 f2d2 | f2F2 B2B2 |
    b2e2 f2b2 | d2e2 f2f2 | B2f2 e2=e2 | f2F2 b2b |]


